X: 37
T:Washerwoman's Branle
M:C|
L:1/4
R:Branle
B:Thoinot Arbeau : Orchesographie, 1589
Z:Steve Mansfield March 2001
K:GDor
GG GG | FF B2 | cB AG | GF G2 ::
Gd Bd | cB AG ::
GG F2 | G2 A2 | AA AB | cB AG |
GG F2 | G2 A2 | cB AG | GF G2 :|

